!!!Melodie: Errettet werden wollen
!!!Typ: Lied
**kern	**silbe	**silbe	**silbe	**silbe
*clefG2	*lang:DE	*lang:DE	*lang:DE	*lang:DE
*k[f#]	*	*	*	*
*M3/2	*	*	*	*
*met(3)	*	*	*	*
4g	Die	Wir	Wir	Ge#
=	=	=	=	=
2g	Lie#	sind	woll’n	#spie#
4a	#be	nicht	uns	#len,
=	=	=	=	=
(8Lb	wird	ein#	ger#	seid
8Jcc	|	|	|	|
4dd)	|	|	|	|
4a	uns	#sam	#ne	zu#
=	=	=	=	=
4b	lei#	‘blie#	wa#	#frie#
4;b	#ten,	#ben;	#gen,	#den,
4dd	den	wir	in	wir
=	=	=	=	=
(4cc	Weg	soll’n	un#	geh’n
4b)	|	|	|	|
4a	be#	uns	#ser'n	in
=	=	=	=	=
4b	#rei#	ü#	Ta#	Glie#
4;b	#ten,	#ben	#gen	#den;
4g	und	mit	der	die
=	=	=	=	=
2g	mit	größ#	Ru#	Last,
4a	den	#'ren	#he	die
=	=	=	=	=
(8Lb	Au#	Gna#	ab#	uns
8Jcc	|	|	|	|
4dd)	|	|	|	|
4a	#gen	#den#	#zu#	be#
=	=	=	=	=
4b	deu#	#trie#	#sa#	#schie#
4;b	#ten	#ben,	#gen,	#den,
4a	auf	als	die’s	hat
=	=	=	=	=
(8Lb	man#	eins	Tun	ihr
8Jcc#	|	|	|	|
4dd)	|	|	|	|
4cc#	#cher#	al#	ver#	Ge#
=	=	=	=	=
2;dd	#lei,	#lein;	#gisst;	#wicht,
4a	ob’s	Wir	wir	das
=	=	=	=	=
2a	et#	sind	woll’n	Joch
4b	#wa	am	nach	ist
=	=	=	=	=
2a	Zeit	Stamm	Ar#	ei#
4g	zu	be#	#beit	#nem
=	=	=	=	=
4f#	strei#	#klie#	fra#	je#
4;f#	#ten,	#ben	#gen,	#den
4a	ob’s	der	wo	drauf
=	=	=	=	=
4b	Rast#	Kreuz#	wel#	ein#
(4f#	#tag	#ge#	#che	#ge#
4e)	|	|	|	|
=	=	=	=	=
2;d	sei?	#mein';	ist,	#richt':
8Lb	Wir	Drum	nicht	geht,
8Ja	|	|	|	|
=	=	=	=	=
2g	se#	gilt’s	an	lasst
4a	#hen	ge#	dem	das
=	=	=	=	=
(8Lb	schon	#mein#	Amt	Fleisch
8Jcc	|	|	|	|
4dd)	|	|	|	|
4a	von	#sam	ver#	hie#
=	=	=	=	=
4b	wei#	lie#	#za#	#nie#
4;b	#ten	#ben,	#gen,	#den
4dd	die	sich	uns	zu
=	=	=	=	=
(4cc	Grad	mit	fröh#	Tod
4b)	|	|	|	|
4a	und	be#	#lich	er#
=	=	=	=	=
4b	Zei#	#trü#	pla#	#mü#
4;b	#ten	#ben	#gen,	#den,
8Lb	von	und	und	so
8Jcc	|	|	|	|
=	=	=	=	=
2dd	un#	uns#	uns#	wird
4ee	#ser'n	#'re	#'re	sein
=	=	=	=	=
(4dd	Se#	Las#	Stei#	Gift
4cc)	|	|	|	|
4g	#lig#	#ten	#ne	ver#
=	=	=	=	=
4a	#kei#	schie#	tra#	#sie#
4;a	#ten;	#ben,	#gen	#den;
4cc	nur	die	auf’s	so
=	=	=	=	=
2b	treu,	Chris#	Bau#	sterbt
4a	nur	#ti	#ge#	ihr
=	=	=	=	=
2;g	treu!	sein.	#rüst.	nicht.
==	==	==	==	==
*-	*-	*-	*-	*-
